X:1
T:A Real Slow Drag
T:A  REAL  SLOW  DRAG.
T:By SCOTT JOPLIN.
T:Public Domain
T:Public Domain
T:Public Domain
T:Public Domain
T:Public Domain
T:Public Domain
T:Public Domain
C:Scott Joplin
Z:Public Domain
%%score { ( 1 3 ) | ( 2 4 ) }
L:1/8
Q:1/4=100
M:4/4
K:D
V:1 treble nm="Piano" snm="Pno."
V:3 treble 
V:2 bass 
V:4 bass 
V:1
"^INTRO. Larghetto."!mf! (FBfd-) (dcBF) | c6 (^AG) | (EGec-) (cB^Ag) | f z Ff Ff F2 || %4
!mf! (FBfd-) (dcBF) | c8 | c8 | d4- d2 F2 |!<(! (FBfd-) (dcdf)!<)! |!f! g8 | %10
 .[GBg] z z2 z2 [B,CG]2 | [^A,CF]2 FF F2 F2 |!mf! (FBfd-) (dcBF) | c8 | c8 | d8 | %16
!f! d4- [DGd][Gdg] [Fdf]2 | [=F=f]4- [FBdf][FBdf] [E_Bde]2 | %18
 [EAce]2 [^DA=c^d][DAcd]- [DAcd](D^FA) | [^D=c]2 [Ec]4 !fermata![=CE_Bc]2 || %20
[K:F]!p! (A3 ^G) ([FA] [Ac]3) | (([ca]3 [Af])) (([^G=B] [Ac]3)) | (^c d2) f- (fg f2) | %23
 (^G A2) [Bc]- [EBc]4 | (A3 ^G) ([FA] [Ac]3) |"_cresc." ([Ac]3 [^G=B]) ([Ac] [ce]3) | %26
 (e =B2) c- (cd =B2) | ((([CEA]4 [E_Bc]4))) |!p! (A3 ^G) ([FA] [Ac]3) | %29
 (([ca]3 [Af])) (([^G=B] [Ac]3)) |"_cresc." [Adf] [Adf]2 [A_ef]- [Ae]2 [Ae]2 |!f! [Bdf]8 | %32
 !>![F^Gd] z z2 z2 .[FGd] z | !>![FAc] z z2 z2 .[FAc] z |!p! [_DFB]4 [CFA] !tenuto![CEG]2 [CFc]- | %35
 ([CFc]2 [=df][Bd] [Ac]2 [FA]2) | [_DFB]4 [CFA] !tenuto![B,EG]2 [A,CF]- | %37
 [A,CF]2!<(! c2- cc-!<)! c2 |!mf! ((([Afa]3 [^Gf^g]))) ((([Afa] [cac']3))) | %39
 ((([ac'a']3 [faf']))) ((([=B^g=b] [cac']3))) | %40
 ((([^cb^c'] [dbd']2))) [fd'f']- (([fd'f'][gg'] [fd'f']2)) | %41
 ((([^Gf^g] [Afa]2))) [cebc']- [cebc']4 | ((([Afa]3 [^Gf^g]))) ((([Afa] [cac']3))) | %43
 ((([cac']3 [=B^g=b]))) ((([cac'] [ec'e']3))) | (e' =b2) [e^gc']- (c'd') =b2 | [cea]4 [ce_bc']4 | %46
!mf! ((([Afa]3 [^Gf^g]))) ((([Afa] [cac']3))) | ((([ac'a']3 [faf']))) ((([=B^g=b] [cac']3))) | %48
"_cresc." [fad'f'] [fad'f']2 [fa_e'f']- ([fae'f'][gg'] [fae'f']2) |!f! [fbd'f']8 | %50
 .[df^gd'] z z2 z2 .[dfgd'] z | .[cfac'] z z2 z2 .[FAc] z |!p! [_DFB]4 [CFA] [CEG]2 [CFc]- | %53
 ([CFc]2 [=df][Bd] [Ac]2 [FA]2) | [_DFB]4 [CFA] !tenuto![B,EG]2 [A,CF]- | [A,CF]4- [A,CF]2 z2 || %56
[K:Bb][I:staff +1] !>!B,2 !>!F,2 !>!D2 !>!C2 | !>!B,2!f![I:staff -1] (Ff dB D2) | %58
!mf! z/ (E/_G/B/) (e[E_G]-) [EG](e [EB]2) | z/ (D/F/B/) (d[DF]-) [DF](d [DB]2) | %60
!f! !>![Aea] z (a/A/e/a/) [Aeg] [Ae]3 | !>![Bdb] z (b/B/d/b/) [Bd]2 z2 | %62
!mp! z/ (E/_G/B/) (e[E_G]-) [EG](e [EB]2) | z/ (D/F/B/) (d[DF]-) [DF](d [DB]2) | %64
!f! !>!G z (G/^F/G/A/ B/A/G/^F/ =F=E) | (_E D2 ^C DC D2) | %66
!mp! z/ (E/_G/B/) (e[E_G]-) [EG](e [EB]2) | z/ (D/F/B/) (d[DF]-) [DF](d [DB]2) | %68
!f! !>![Aea] z (a/A/e/a/) [Aeg] [Ae]3 | !>![Bdb] z (b/B/d/b/) (gf) F2 |!mp! (=E ^c2 E GB c2) | %71
 (_E =c2 E _GB c2) | [CE_GB] [CEGB]2 [CEGB] (A^G) [CEFA]2 | [B,DFB]2 (Ff dB D2) | %74
!mp! z/ (_E/_G/B/) (e[E_G]-) [EG](e [EB]2) | z/ (D/F/B/) (d[DF]-) [DF](d [DB]2) | %76
!f! !>![Aea] z (a/A/e/a/) [Aeg] [Ae]3 | !>![Bdb] z (b/B/d/b/) [Bd]2 z2 | %78
!mp! z/ (E/_G/B/) (e[E_G]-) [EG](e [EB]2) | z/ (D/F/B/) (d[DF]-) [DF](d [DB]2) | %80
!f! !>!G z (G/^F/G/A/ B/A/G/^F/ =F=E) | (_E D2 ^C DC D2) | %82
 z/!mp! (E/_G/B/) (e[E_G]-) [EG](e [EB]2) | z/ (D/F/B/) (d[DF]-) [DF](d [DB]2) | %84
!f! !>![Aea] z (a/A/e/a/) [Aeg] [Ae]3 |!f! !>![Bdb] z (b/B/d/b/) (g/=e/^c/B/) G(=e | %86
!mf! =e) (^c2 =E GA (c2) | ^c) (d2 F ^GAdf) |"_cresc." gGgG gGgG | %89
!ff! [Gg]2!>(! (=EG) [EBc]4!>)! ||[K:F]!p! (A3 ^G) ([FA] [Ac]3) | (([ca]3 [Af])) ([^G=B] [Ac]3) | %92
 (^c d2) f- (fg f2) | (^G A2) [Bc]- [EBc]4 | (A3 ^G) ([FA] [Ac]3) | %95
"_cresc." (([Ac]3 [^G=B])) ([Ac] [ce]3) | (e =B2) c- (cd =B2) | ((([CEA]4 [E_Bc]4))) | %98
!p! (A3 ^G) ([FA] [Ac]3) | (([ca]3 [Af])) (([^G=B] [Ac]3)) | %100
"_cresc." [Adf] [Adf]2 [A_ef]- [Ae]2 [Ae]2 |!f! [Bdf]8 | !>![F^Gd] z z2 z2 .[FGd] z | %103
 !>![FAc] z z2 z2 .[FAc] z |!p! [_DFB]4 [CFA] !tenuto![CEG]2 [CFc]- | %105
 ([CFc]2 [=df][Bd] [Ac]2 [FA]2) | [_DFB]4 [CFA] !tenuto![B,EG]2 [A,CF]- | %107
 [A,CF]2!<(!!<(! c2- cc-!<)!!<)! c2 |!mf! ((([Afa]3 [^Gf^g]))) ((([Afa] [cac']3))) | %109
 ((([ac'a']3 [faf']))) ((([=B^g=b] [cac']3))) | %110
 ((([^cb^c'] [dbd']2))) [fd'f']- (([fd'f'][gg'] [fd'f']2)) | %111
 ((([^Gf^g] [Afa]2))) [cebc']- [cebc']4 | ((([Afa]3 [^Gf^g]))) ((([Afa] [cac']3))) | %113
"_cresc." ((([cac']3 [=B^g=b]))) ((([cac'] [ec'e']3))) | (e' =b2) [e^gc']- (c'd') =b2 | %115
 [cea]4 [ce_bc']4 |!mf! ((([Afa]3 [^Gf^g]))) ((([Afa] [cac']3))) | %117
 ((([ac'a']3 [faf']))) ((([=B^g=b] [cac']3))) | %118
"_cresc." [fad'f'] [fad'f']2 [fa_e'f']- ([fae'f'][gg'] [fae'f']2) |!f! [fbd'f']8 | %120
 .[df^gd'] z z2 z2 .[dfgd'] z | .[cfac'] z z2 z2 .[FAc] z | %122
!p! [_DFB]4 [CFA] !tenuto![CEG]2 [CFc]- | ([CFc]2 [=df][Bd] [Ac]2 [FA]2) | %124
 [_DFB]4 [CFA] !tenuto![B,EG]2 [A,CF]- | [A,CF]2!f! [CFAc]4 [B,FB]2- | [B,FB]2 ([FB_df]4 [Gdfg]2 | %127
 [Acfa]4-) !fermata![Acfa]2 z2 |] %128
V:2
 (F,B,FD-) (DCB,F,) | C6 (^A,G,) | (E,G,EC-) (CB,^A,G) | F z z2 [F,^A,E]4 || %4
 B,,2 [F,B,D]2 B,,2 [F,B,D]2 | z [G,B,][G,B,][B,C]- [B,C][B,C] [G,B,]2 | %6
 z [F,^A,][F,A,][A,C]- [A,C][A,C] [F,A,]2 | z [F,B,][F,B,][G,B,]- [G,B,][F,B,] ^A,2 | %8
 B,,2 [F,B,D]2 B,,2 [F,B,D]2 | z [CE][CE][EG]- [EG][EG] [CE]2 | .[E,G,B,C] z z2 z2 [E,,E,]2 | %11
 [F,,F,]2 z2 z4 | B,,2 [F,B,D]2 B,,2 [F,B,D]2 | z [G,B,][G,B,][B,C]- [B,C][B,C] [G,B,]2 | %14
 z [F,^A,][F,A,][A,C]- [A,C][A,C] [F,A,]2 | z [F,B,][F,B,]B,- B,B, B,2 | z _B,B,B,- x4 | %17
 [^G,,^G,]4- [G,,G,][G,,G,] [=G,,=G,]2 | [G,,G,]2 [^F,,^F,][F,,F,]- [F,,F,](F,A,=C) | %19
 [A,,F,]2 [_B,,G,]4 !fermata![=C,,=C,]2 ||[K:F]"^legato" (F,,F,[A,C]F,) (F,,F,[A,C]F,) | %21
 (F,,F,[A,C]F,) (F,,F,[A,_E]F,) | (B,,F,[B,D]F,) (B,,F,[B,D]F,) | (F,,F,[A,C]) z (G,,C,D,E,) | %24
 (F,F,[A,C]F,) (F,,F,[A,C]F,) | (E,,E,[A,C]E,) (E,,E,[A,C]E,) | (E,,E, [^G,D]2) z4 | %27
 (A,,E,C,A,,) (G,,C,D,E,) | (F,F,[A,C]F,) (F,,F,[A,C]F,) | (F,,F,[A,C]F,) (F,,F,[A,C]F,) | %30
 z2 [F,A,]2 z2 [F,A,]2 | [B,,B,]2 (D,^C, D,F, B,2) | (!>!=B,^G,=B,,D, F,^G, .=B,) z | %33
 (!>!CA,C,D, F,A, .C) z | (G,,2 A,,B,,) (C,2 B,,2) | A,,2 z2 z2 C2 | (G,,2 A,,B,,) (C,2 C,,2) | %37
 F,,2 A,,4 G,,C, | (F,,F,[A,C]F,) (F,,F,[A,C]F,) | (F,,F,[A,C]F,) (F,,F,[A,_E]F,) | %40
 (B,,F,[B,D]F,) (B,,F,[B,D]F,) | (F,,F,[A,C]) z (G,,C,D,E,) | (F,F,[A,C]F,) (F,,F,[A,C]F,) | %43
 (E,,E,[A,C]E,) (E,,E,[A,C]E,) | (E,,E, [^G,D]2) z4 | (A,,E,C,A,,) (G,,C,D,E,) | %46
 (F,F,[A,C]F,) (F,,F,[A,C]F,) | (F,,F,[A,C]F,) (F,,F,[A,C]F,) | z2 [F,A,]2 z2 [F,A,]2 | %49
 [B,,B,]2 (D,^C, D,F, B,2) | (!>!=B,^G,=B,,D, F,^G, .=B,) z | (!>!CA,C,D, F,A, .C) z | %52
 (G,,2"^sempre" A,,B,, C,2 B,,2) | A,,2 z2 z2 C2 | (G,,2 A,,B,,) (C,2 C,,2) | (F,,2 C,2 F,,2) z2 || %56
[K:Bb] !>!B,,2 !>!F,,2 !>!D,2 !>!C,2 | !>!B,,2 (D2 B,2 F,2) | (_G,2 E,2 B,,2 _G,,2) | %59
 (F,,2 B,,2 D,2 F,2) | !>!C, z [F,CE]2 F,,2 [F,A,E]2 | !>!B,, z [F,B,D]2 D,2 F,2 | %62
 (_G,2 E,2 B,,2 _G,,2) | (F,,2 B,,2 D,2 F,2) | !>!B, z (B,/A,/B,/C/ D/C/B,/A,/ _A,G,) | %65
 (_G, F,2 =E, F,E, F,2) | (_G,2 _E,2 B,,2 _G,,2) | (F,,2 B,,2 D,2 F,2) | %68
 !>!C, z [F,CE]2 F,,2 [F,A,E]2 | !>!B,, z [F,B,D]2 F,2 [_A,B,D]2 | [G,B,^C]8 | [_G,B,=C]8 | %72
 _G,2 E,2 F,2 F,,2 | B,,2 (D2 B,2 F,2) | (_G,2 E,2 B,,2 _G,,2) | (F,,2 B,,2 D,2 F,2) | %76
 !>!C, z [F,CE]2 F,,2 [F,A,E]2 | !>!B,, z [F,B,D]2 D,2 F,2 | (_G,2 E,2 B,,2 _G,,2) | %79
 (F,,2 B,,2 D,2 F,2) | !>!B, z (B,/A,/B,/C/ D/C/B,/A,/ _A,G,) | (_G, F,2 =E, F,E, F,2) | %82
 (_G,2 E,2 B,,2 _G,,2) | (F,,2 B,,2 D,2 F,2) | !>!C, z [F,CE]2 F,,2 [F,A,E]2 | %85
 !>!B,, z [F,B,D]2 B,,2 [=E,G,B,^C]2 | (((([=E,G,A,^C]8 | [D,F,A,D]8)))) | %88
 (((([D,F,G,=B,]4 [_D,F,G,_B,]4)))) | [C,=E,G,B,]4 G,,4 || %90
[K:F]"^legato" (F,F,[A,C]F,) (F,,F,[A,C]F,) | (F,,F,[A,C]F,) (F,,F,[A,_E]F,) | %92
 (B,,F,[B,D]F,) (B,,F,[B,D]F,) | (F,,F,[A,C]) z (G,,C,D,E,) | (F,F,[A,C]F,) (F,,F,[A,C]F,) | %95
 (E,,E,[A,C]E,) (E,,E,[A,C]E,) | (E,,E, [^G,D]2) z4 | (A,,E,C,A,,) (G,,C,D,E,) | %98
 (F,F,[A,C]F,) (F,,F,[A,C]F,) | (F,,F,[A,C]F,) (F,,F,[A,C]F,) | z2 [F,A,]2 z2 [F,A,]2 | %101
 [B,,B,]2 (D,^C, D,F, B,2) | (!>!=B,^G,=B,,D, F,^G, .=B,) z | (!>!CA,C,D, F,A, .C) z | %104
 (G,,2 A,,B,,) (C,2 B,,2) | A,,2 z2 z2 C2 | (G,,2 A,,B,,) (C,2 C,,2) | F,,2 A,,4 G,,C, | %108
 (F,,F,[A,C]F,) (F,,F,[A,C]F,) | (F,,F,[A,C]F,) (F,,F,[A,_E]F,) | (B,,F,[B,D]F,) (B,,F,[B,D]F,) | %111
 (F,,F,[A,C]) z (G,,C,D,E,) | (F,F,[A,C]F,) (F,,F,[A,C]F,) | (E,,E,[A,C]E,) (E,,E,[A,C]E,) | %114
 (E,,E, [^G,D]2) z4 | (A,,E,C,A,,) (G,,C,D,E,) | (F,F,[A,C]F,) (F,,F,[A,C]F,) | %117
 (F,,F,[A,C]F,) (F,,F,[A,C]F,) | z2 [F,A,]2 z2 [F,A,]2 | [B,,B,]2 (D,^C, D,F, B,2) | %120
 (!>!=B,^G,=B,,D, F,^G, .=B,) z | (!>!CA,C,D, F,A, .C) z | (G,,2 A,,B,, C,2 B,,2) | A,,2 z2 z2 C2 | %124
 (G,,2 A,,B,,) (C,2 C,,2) | F,,2"^sempre" _E,4 _D,2- | D,2 (_D,4 [B,,,B,,]2 | %127
 [F,,,F,,]4-) !fermata![F,,,F,,]2 z2 |] %128
V:3
 x8 | x8 | x8 | x8 || x8 | z [CE][CE][EG]- [EG][EG] [CE]2 | z [CE][CE][EF]- [EF][EF] [CE]2 | %7
 z DDE- ED [CE]2 | x8 | z [GB][GB][Bc]- [Bc][Bc] [GB]2 | x8 | x8 | x8 | %13
 z [CE][CE][EG]- [EG][EG] [CE]2 | z [CE][CE][EF]- [EF][EF] [CE]2 | z DD[DF]- [DF][EG] [DF]2 | %16
 z [DG][DG][DG]- x4 | z [=Bd][Bd][Bd]- x4 | x8 | x8 ||[K:F] F4 x4 | x8 | B3 d- d2 d2 | F3 E- x4 | %24
 F4 x4 | x8 | [E^G]3 [EG]- [EG]2 [DG]2 | x8 | F4 x4 | x8 | x4 (fg f2) | x8 | x8 | x8 | x8 | x8 | %36
 x8 | x2 z [CFA]- [CFA]2 [CEB]2 | x8 | x8 | x8 | x8 | x8 | x8 | [e^g]3 x [eg]2 [dg]2 | x8 | x8 | %47
 x8 | x8 | x8 | x8 | x8 | x8 | x8 | x8 | x8 ||[K:Bb] x8 | x8 | x8 | x8 | x x x2 x g2 a | %61
 x x x2 (gfdF) | x8 | x8 | x8 | x8 | x8 | x8 | x x x2 x g2 a | x x x2 [Bd]2 z2 | x8 | x8 | %72
 x4 [CEF]2 x2 | x8 | x8 | x8 | x x x2 x g2 a | x x x2 (gfdF) | x8 | x8 | x8 | x8 | x8 | x8 | %84
 x x x2 x g2 a | x8 | x8 | x8 | x8 | x8 ||[K:F] F4 x4 | x8 | B3 d- d2 d2 | F3 E- x4 | F4 x4 | x8 | %96
 [E^G]3 [EG]- [EG]2 [DG]2 | x8 | F4 x4 | x8 | x4 (fg f2) | x8 | x8 | x8 | x8 | x8 | x8 | %107
 x2 z [CFA]- [CFA]2 [CEB]2 | x8 | x8 | x8 | x8 | x8 | x8 | [e^g]3 x [eg]2 [dg]2 | x8 | x8 | x8 | %118
 x8 | x8 | x8 | x8 | x8 | x8 | x8 | x8 | x8 | x8 |] %128
V:4
 x8 | x8 | x8 | x8 || x8 | E,,8 | F,,8 | B,,6 F,2 | x8 | E,,8 | x8 | x8 | x8 | E,,8 | F,,8 | B,,8 | %16
 _B,,4- [B,,B,][B,,_B,] [A,,A,]2 | x8 | x8 | x8 ||[K:F] F,,2 z2 F,,2 z2 | F,,2 z2 F,,2 z2 | %22
 B,,2 z2 B,,2 z2 | F,,2 z2 G,,4 | [F,,F,]2 z2 F,,2 z2 | E,,2 z2 E,,2 z2 | E,,2 z2 (E,2 E,,2) | %27
 A,,4 G,,4 | [F,,F,]2 z2 F,,2 z2 | F,,2 z2 F,,2 z2 | D,4 C,4 | x8 | x8 | x8 | x8 | x8 | x8 | x8 | %38
 F,,2 z2 F,,2 z2 | F,,2 z2 F,,2 z2 | B,,2 z2 B,,2 z2 | F,,2 z2 G,,4 | [F,,F,]2 z2 F,,2 z2 | %43
 E,,2 z2 E,,2 z2 | E,,2 z2 (E,2 E,,2) | A,,4 G,,4 | [F,,F,]2 z2 F,,2 z2 | F,,2 z2 F,,2 z2 | %48
 D,4 C,4 | x8 | x8 | x8 | x8 | x8 | x8 | x8 ||[K:Bb] x8 | x8 | x8 | x8 | x8 | x8 | x8 | x8 | x8 | %65
 x8 | x8 | x8 | x8 | x8 | x8 | x8 | x8 | x8 | x8 | x8 | x8 | x8 | x8 | x8 | x8 | x8 | x8 | x8 | %84
 x8 | x8 | x8 | x8 | x8 | x4 (G,,C,D,=E,) ||[K:F] [F,,F,]2 z2 F,,2 z2 | F,,2 z2 F,,2 z2 | %92
 B,,2 z2 B,,2 z2 | F,,2 z2 G,,4 | [F,,F,]2 z2 F,,2 z2 | E,,2 z2 E,,2 z2 | E,,2 z2 (E,2 E,,2) | %97
 A,,4 G,,4 | [F,,F,]2 z2 F,,2 z2 | F,,2 z2 F,,2 z2 | D,4 C,4 | x8 | x8 | x8 | x8 | x8 | x8 | x8 | %108
 F,,2 z2 F,,2 z2 | F,,2 z2 F,,2 z2 | B,,2 z2 B,,2 z2 | F,,2 z2 G,,4 | [F,,F,]2 z2 F,,2 z2 | %113
 E,,2 z2 E,,2 z2 | E,,2 z2 (E,2 E,,2) | A,,4 G,,4 | [F,,F,]2 z2 F,,2 z2 | F,,2 z2 F,,2 z2 | %118
 D,4 C,4 | x8 | x8 | x8 | x8 | x8 | x8 | x2 z2 _E,,2 z2 | _D,,2 z2 D,,2 x2 | x8 |] %128

